img/social-01.svg

<svg width="12" height="25" viewBox="0 0 12 25" fill="none" xmlns="http://www.w3.org/2000/svg">
<path fill-rule="evenodd" clip-rule="evenodd" d="M2.94439 24.792L2.96013 14.4206H0.58258C0.267672 14.4206 0.0314908 14.1291 0.0157454 13.7863L0 10.4434C0 10.0834 0.251926 9.80914 0.566834 9.80914H2.94439V6.58628C2.94439 2.83199 4.9598 0.791992 7.91994 0.791992H10.3447C10.6596 0.791992 10.9116 1.08342 10.9116 1.42628V4.23771C10.9116 4.58056 10.6596 4.87199 10.3447 4.87199H8.84891C7.24288 4.88914 6.92798 5.74628 6.92798 7.01485V9.80914H10.4549C10.7856 9.80914 11.0533 10.1348 11.006 10.512L10.6596 13.872C10.6281 14.1806 10.392 14.4206 10.1085 14.4206H6.94372L6.92798 24.792H2.94439Z" fill="white"/>
</svg>

<svg width="12" height="25" fill="none" xmlns="http://www.w3.org/2000/svg"><path fill-rule="evenodd" clip-rule="evenodd" d="M2.944 24.792l.016-10.371H.583c-.315 0-.552-.292-.567-.635L0 10.443c0-.36.252-.634.567-.634h2.377V6.586C2.944 2.832 4.96.792 7.92.792h2.425c.315 0 .567.291.567.634v2.812c0 .343-.252.634-.567.634H8.849c-1.606.017-1.921.874-1.921 2.143v2.794h3.527c.33 0 .598.326.551.703l-.346 3.36c-.032.309-.268.549-.552.549H6.944l-.016 10.371H2.944z" fill="#fff"/></svg>
